assets/img/braze_icons/copy-07.svg

<svg fill="none" height="24" viewBox="0 0 24 24" width="24" xmlns="http://www.w3.org/2000/svg"><g clip-rule="evenodd" fill="#801ed7" fill-rule="evenodd"><path d="m5.16146 7h7.67704c.5272-.00002.982-.00003 1.3565.03057.3954.0323.7886.10362 1.167.29641.5645.28762 1.0234.74656 1.311 1.31105.1928.37838.2641.7716.2964 1.16694.0306.37453.0306.82933.0306 1.35643v7.6771c0 .5272 0 .982-.0306 1.3565-.0323.3954-.1036.7886-.2964 1.167-.2876.5645-.7465 1.0234-1.311 1.311-.3784.1928-.7716.2641-1.167.2964-.3745.0306-.8292.0306-1.3564.0306h-7.67712c-.52711 0-.98196 0-1.35651-.0306-.39534-.0323-.78856-.1036-1.16694-.2964-.56449-.2876-1.02343-.7465-1.31105-1.311-.19279-.3784-.26411-.7716-.29641-1.167-.030605-.3745-.030588-.8293-.03057-1.3565v-7.677c-.000018-.5272-.000035-.9819.03057-1.35653.0323-.39534.10362-.78856.29641-1.16694.28762-.56449.74656-1.02343 1.31105-1.31105.37838-.19279.7716-.26411 1.16694-.29641.37456-.0306.82935-.03059 1.35649-.03057z"/><path d="m13.0001 2c0-.55228.4477-1 1-1h1.9999c.5522 0 1 .44772 1 1s-.4478 1-1 1h-1.9999c-.5523 0-1-.44772-1-1zm-1.5002-.01075c.0075.55223-.4341 1.00597-.9863 1.01345-.69391.00941-.87415.05868-.96759.10629-.18816.09588-.34114.24886-.43701.43702-.04761.09344-.09689.27367-.10629.96754-.00748.55223-.46123.99384-1.01346.98636-.55223-.00749-.99384-.46123-.98636-1.01346.0089-.65623.03778-1.2865.3241-1.84842.28762-.56449.74656-1.02343 1.31104-1.31105.56193-.28631 1.19219-.3152 1.84847-.32409.5522-.007486 1.0059.43412 1.0134.98636zm7.0002 0c.0075-.55224.4612-.993846 1.0135-.98636.6562.00889 1.2865.03778 1.8484.32409.5645.28762 1.0234.74656 1.311 1.31105.2863.56192.3152 1.19218.3241 1.84841.0075.55223-.4341 1.00597-.9863 1.01346-.5523.00748-1.006-.43413-1.0135-.98636-.0094-.69386-.0587-.87409-.1063-.96753-.0959-.18816-.2488-.34114-.437-.43702-.0934-.0476-.2737-.09688-.9675-.10629-.5523-.00748-.9939-.46122-.9864-1.01345zm3.4999 5.01074c.5523 0 1 .44772 1 1v2c0 .55231-.4477 1.00001-1 1.00001s-1-.4477-1-1.00001v-2c0-.55228.4477-1 1-1zm.0108 5.50011c.5522.0075.9938.4612.9863 1.0134-.0089.6563-.0378 1.2865-.3241 1.8485-.2876.5645-.7465 1.0234-1.311 1.311-.5619.2863-1.1922.3152-1.8484.3241-.5523.0075-1.006-.4341-1.0135-.9863-.0075-.5523.4341-1.006.9864-1.0135.6938-.0094.8741-.0587.9675-.1063.1882-.0959.3411-.2488.437-.437.0476-.0934.0969-.2737.1063-.9676.0075-.5522.4612-.9938 1.0135-.9863z"/></g></svg>

<svg width="24" height="24" viewBox="0 0 24 24" fill="none" xmlns="http://www.w3.org/2000/svg">
<path fill-rule="evenodd" clip-rule="evenodd" d="M5.16146 7H12.8385C13.3657 6.99998 13.8205 6.99997 14.195 7.03057C14.5904 7.06287 14.9836 7.13419 15.362 7.32698C15.9265 7.6146 16.3854 8.07354 16.673 8.63803C16.8658 9.01641 16.9371 9.40963 16.9694 9.80497C17 10.1795 17 10.6343 17 11.1614V18.8385C17 19.3657 17 19.8205 16.9694 20.195C16.9371 20.5904 16.8658 20.9836 16.673 21.362C16.3854 21.9265 15.9265 22.3854 15.362 22.673C14.9836 22.8658 14.5904 22.9371 14.195 22.9694C13.8205 23 13.3658 23 12.8386 23H5.16148C4.63437 23 4.17952 23 3.80497 22.9694C3.40963 22.9371 3.01641 22.8658 2.63803 22.673C2.07354 22.3854 1.6146 21.9265 1.32698 21.362C1.13419 20.9836 1.06287 20.5904 1.03057 20.195C0.999965 19.8205 0.999982 19.3657 1 18.8385V11.1615C0.999982 10.6343 0.999965 10.1796 1.03057 9.80497C1.06287 9.40963 1.13419 9.01641 1.32698 8.63803C1.6146 8.07354 2.07354 7.6146 2.63803 7.32698C3.01641 7.13419 3.40963 7.06287 3.80497 7.03057C4.17953 6.99997 4.63432 6.99998 5.16146 7Z" fill="#801ED7"/>
<path fill-rule="evenodd" clip-rule="evenodd" d="M13.0001 2C13.0001 1.44772 13.4478 1 14.0001 1H16C16.5522 1 17 1.44772 17 2C17 2.55228 16.5522 3 16 3H14.0001C13.4478 3 13.0001 2.55228 13.0001 2ZM11.4999 1.98925C11.5074 2.54148 11.0658 2.99522 10.5136 3.0027C9.81969 3.01211 9.63945 3.06138 9.54601 3.10899C9.35785 3.20487 9.20487 3.35785 9.109 3.54601C9.06139 3.63945 9.01211 3.81968 9.00271 4.51355C8.99523 5.06578 8.54148 5.50739 7.98925 5.49991C7.43702 5.49242 6.99541 5.03868 7.00289 4.48645C7.01179 3.83022 7.04067 3.19995 7.32699 2.63803C7.61461 2.07354 8.07355 1.6146 8.63803 1.32698C9.19996 1.04067 9.83022 1.01178 10.4865 1.00289C11.0387 0.995404 11.4924 1.43701 11.4999 1.98925ZM18.5001 1.98925C18.5076 1.43701 18.9613 0.995404 19.5136 1.00289C20.1698 1.01178 20.8001 1.04067 21.362 1.32698C21.9265 1.6146 22.3854 2.07354 22.673 2.63803C22.9593 3.19995 22.9882 3.83021 22.9971 4.48644C23.0046 5.03867 22.563 5.49241 22.0108 5.4999C21.4585 5.50738 21.0048 5.06577 20.9973 4.51354C20.9879 3.81968 20.9386 3.63945 20.891 3.54601C20.7951 3.35785 20.6422 3.20487 20.454 3.10899C20.3606 3.06139 20.1803 3.01211 19.4865 3.0027C18.9342 2.99522 18.4926 2.54148 18.5001 1.98925ZM22 6.99999C22.5523 6.99999 23 7.44771 23 7.99999V9.99999C23 10.5523 22.5523 11 22 11C21.4477 11 21 10.5523 21 9.99999V7.99999C21 7.44771 21.4477 6.99999 22 6.99999ZM22.0108 12.5001C22.563 12.5076 23.0046 12.9613 22.9971 13.5135C22.9882 14.1698 22.9593 14.8 22.673 15.362C22.3854 15.9265 21.9265 16.3854 21.362 16.673C20.8001 16.9593 20.1698 16.9882 19.5136 16.9971C18.9613 17.0046 18.5076 16.563 18.5001 16.0108C18.4926 15.4585 18.9342 15.0048 19.4865 14.9973C20.1803 14.9879 20.3606 14.9386 20.454 14.891C20.6422 14.7951 20.7951 14.6422 20.891 14.454C20.9386 14.3606 20.9879 14.1803 20.9973 13.4864C21.0048 12.9342 21.4585 12.4926 22.0108 12.5001Z" fill="#801ED7"/>
</svg>
